X:2
T:The Girl From Ipanema
C:Antonio Carlos Jobim
L:1/4
M:C
I:linebreak $
K:F
"F" G E E D | G E/E/ z/ E/ D |"G7b5" G E E D | G E/E/ z/ E/ D Ox/||$"Gm" F D/D/ z/ D/ C |
"Gb7" E C/C/ z/ C/ B, ||1"Am" C4 "Ab7" x4|"Gm" z4 "Gb7" x4:|2"F" C4 | z4 ||$[K:Gb]"Gb" F4 |
(3z G F (3E F E |"B7" D2 E2 | z4 ||$[K:E]"F#m" G4 | (3z A G (3F G F |"D7" E2 F2 | z4 ||$
[K:F]"Gm" A4 | (3z B A (3G A G |"Eb7" F2 G2 | z2 A B |$"Am" c C/D/ (3E F G |"D7b5" ^G2 z A |
"Gm" B B,/C/ (3D E F |"C7b5" "_D.C. al Coda" ^F4 ||$Ox/"Gm" A3/2 F/ (3F F D |"Gb7" c3/2 E/ (3E E D |
"F" E4 |"Gb7" z4 |"F" z4 | z4 |]

